X: 19903
T: Jig For Rachel
R: jig
M: 6/8
K: Amajor
|:AGE DCD|EAB cBA|BEE E2c|dEc BAG|
AGE DCD|EAB cBA|BEe deB|EBG AAA:|
|:FDA BAG|AB/c/d ecA|FDA GAB|ABG AGE|
FDD GEE|AB/c/d ecA|Fdc BAG|1 EAG AGE:|2 EAG AAA||

